**kern
*clefF4
*k[]
*M4/4
=1
*^
2E 2G 2c 2c	2C
2F 2A 2c 2d	2FF
=2	=2
2E 2G 2c 2e	2CC
2r	2r
=3||	=3||
2E 2G 2c 2e	2CC
=4	=4
1F 1A-X 1B 1d	2FF
.	2AA-X
=5	=5
2E 2G 2c 2c	2C
=6||	=6||
2E 2G 2c	2C 2C
2D 2F 2G 2B	2GG
=7	=7
2C 2E 2G 2c	2CC
2r	2r
=8||	=8||
*	*^
2A 2c	2.E	2AAA\
2G#X 2B	.	2EE\
.	4D	.
*	*v	*v
=9	=9
2C 2E 2A	2AA
2r	2r
=10||	=10||
2C 2E 2A 2c	2AA
!!linebreak:original
=11	=11
1D 1F#X 1G 1B	2DD
.	2FF
=12	=12
2C 2E 2A 2A	2AA
=13||	=13||
2C 2E 2A 2c	2AA
2D 2F 2A 2B	2DD
=14	=14
2C 2E 2A 2c	2AAA
2r	2r
=15||	=15||
2E 2G 2c	2C
2D 2A 2c	2FF
=16	=16
1GG 1D 1B	2G
.	2F
=17	=17
2C 2E 2c	2CC
2r	2r
=18||	=18||
2E 2G [2c 2e	2C
=19	=19
1GG 1F 1G 1d	2c]
.	2B
=20	=20
2E 2G 2c 2c	2CC
*v	*v
==
*-
!!!system-decoration: [(s1
